X: 16
T:Puin Bracken
M:C
L:1/4
S:(2) As Written
R:Reel
K:C
e|AAa2|geg2|e>d BA|GA B/2A/2G|AAa2|geg2|e>dBe|A2-A2|!
e>d BA|GA B/2A/2G|e>dBA|B<dB<d|e>d BA|GA B/2A/2G|e>dBe|A2-A2|!
e>d BA|GA B/2A/2G|e>dBA|B<dB<d|e>d BA|GA B/2A/2G|e>dBe|A3 e|!
AAa2|geg2|e>d BA|GA B/2A/2G|AAa2|geg2|e>dBe|A2-A2|!
e>d BA|GA B/2A/2G|e>dBA|B<dB<d|e>d BA|GA B/2A/2G|e>dBe|A3||!
